X: 179
T:Road To Lisdoonvarna
% Nottingham Music Database
S:Trad, arr Phil Rowe
M:6/8
K:Em
"Em"E2B B2A|B2^c d3|"D"F2A ABA|"Bm"D2E FED|"Em"E2B B2A|"G"B2^c d3|
"A"^cdc "Bm"B2A|"Em"B2E E3:: "Em"e2f gfe|"G"d2B B^cd|"A"^c2A ABc|"Bm"d2B B3|
"Em""(C)"e2f gfe|"G"d2B B^cd|"A"^cdc "Bm"B2A|"Em"B2E E3:|<end>
<start>
